X:629
T:Untitled in ms. EHo.629
A:England; East Yorkshire
M:3/8
L:1/16
Q:3/8=50
B:Edward Holmes MS, c1846, Beverley, Yorkshire.
O:
Z:Village Music Project 2018, Jake Wade. Beverley, East Yorks
K:G
yD2 | .G2 (GFGA) | .B2 (BABc) | "_>"(e4d2) | "_>"(e4d2) |
(db)(bg)(gd) | (Bg)(gd)(dB) | c2 caAf | g4 :|
|: d2 | d2 cB c2 | caac c2 | e2 d^c d2 | (db)bddB |
d2 cB c2 | caac c2 | B2 caAf | g4 :|
|: "^Solo"d2 "_p" | (dd') b2"_>"d2 | (db) g2"_>"d2 | dc'ad a2 | (da) f2"_>"d2 |
dd'bg .b2 | dbgB .d2 | dc'ad af | g4 :|

